app/assets/images/payment_icons/pay_shap.svg

<svg width="38" height="24" viewBox="0 0 38 24" role="img" fill="none" xmlns="http://www.w3.org/2000/svg" aria-labelledby="pi-pay-shap">
<title id="pi-pay-shap">PayShap</title>
<rect x="1" y="1" width="36" height="22" rx="2" fill="white"/>
<rect x="0.5" y="0.5" width="37" height="23" rx="2.5" stroke="black" stroke-opacity="0.07"/>
<g clip-path="url(#clip0_819_5043)">
<mask id="mask0_819_5043" style="mask-type:luminance" maskUnits="userSpaceOnUse" x="2" y="5" width="36" height="12">
<path d="M37.8056 5H2V16.6943H37.8056V5Z" fill="white"/>
</mask>
<g mask="url(#mask0_819_5043)">
<path d="M30.5306 13.3634C30.6007 12.8036 30.2433 12.4693 29.7214 12.4693C29.1846 12.4693 28.7379 12.84 28.6677 13.4728C28.6072 14.0476 28.9326 14.3744 29.4164 14.3744C29.9839 14.3744 30.4602 13.9962 30.5285 13.3614M29.9158 11.4563C30.1609 11.4544 30.4038 11.5015 30.6292 11.5945C30.8543 11.6875 31.057 11.8244 31.2244 11.9965C31.5954 12.3531 31.7463 12.84 31.6782 13.4728C31.5342 14.7749 30.4533 15.3854 29.576 15.3854C29.2949 15.3854 29.061 15.3347 28.8876 15.2254C28.7141 15.116 28.6065 15.0072 28.5847 14.9127L28.374 16.6942H27.1798L27.4222 14.5054L27.7476 11.5339H28.9415L28.889 11.854C28.9372 11.7985 28.9929 11.7494 29.0548 11.7082C29.3123 11.5493 29.6113 11.4636 29.9172 11.461M24.9932 14.3771C25.303 14.3771 25.9689 14.1813 25.9689 13.3013C25.9689 12.7847 25.591 12.4794 25.1141 12.4794C24.5395 12.4794 24.1307 12.9157 24.1307 13.5336C24.1307 14.0793 24.4819 14.3771 24.9932 14.3771ZM26.0595 11.8973L26.12 11.5339H27.3142L26.8982 15.3159H25.7041L25.7497 14.9674C25.6515 15.149 25.2356 15.3888 24.7207 15.3888C24.2641 15.3905 23.8238 15.2257 23.4887 14.9275C23.1332 14.6216 22.952 14.1927 22.952 13.6329C22.9448 13.3504 22.9959 13.0694 23.1024 12.806C23.2089 12.5426 23.3685 12.3022 23.5723 12.0985C23.761 11.897 23.9921 11.7364 24.2503 11.6273C24.5085 11.5182 24.7878 11.4631 25.0698 11.4657C25.6747 11.4806 26.0377 11.7932 26.0602 11.8945M21.3168 11.4583C21.5085 11.4534 21.699 11.4895 21.8745 11.5639C22.05 11.6383 22.2062 11.7491 22.3318 11.8885C22.5959 12.1721 22.7019 12.5935 22.6338 13.1608L22.3922 15.3131H21.198L21.4327 13.2115C21.4931 12.7097 21.3118 12.4625 20.8806 12.4625C20.7651 12.4607 20.6504 12.4816 20.5437 12.5242C20.437 12.5667 20.3406 12.6298 20.2603 12.7097C20.0861 12.8698 19.9878 13.0082 19.9576 13.1318L19.6935 15.3131H18.4993L19.0669 10.1718H20.261L20.0341 12.1647C20.1044 12.0188 20.2449 11.8662 20.4802 11.7061C20.7252 11.5369 21.0215 11.45 21.3231 11.4589M18.3883 12.4848L17.3972 12.6955C17.3066 12.4774 17.1626 12.368 16.9758 12.368C16.765 12.368 16.6281 12.499 16.6281 12.6449C16.6281 12.7536 16.7032 12.8333 16.855 12.8988L17.3312 13.0663C17.5286 13.1288 17.7173 13.2143 17.8931 13.3209C18.2036 13.4809 18.3244 13.7065 18.3546 14.0989C18.3612 14.2842 18.3189 14.4681 18.2316 14.6335C18.1442 14.7988 18.0147 14.9402 17.8552 15.0444C17.507 15.2759 17.0914 15.3956 16.6681 15.3861C16.2978 15.3968 15.9334 15.2947 15.6271 15.0943C15.4902 15.0033 15.3744 14.8858 15.2872 14.7495C15.2 14.6131 15.1433 14.4608 15.1206 14.3022L16.0809 14.0617C16.1792 14.3454 16.3759 14.4838 16.6709 14.4838C16.9659 14.4838 17.1549 14.3386 17.1549 14.1711C17.1552 14.1156 17.1359 14.0616 17.1002 14.0179C17.0645 13.9743 17.0144 13.9435 16.9582 13.9307L16.5122 13.7713C15.8097 13.5235 15.4529 13.146 15.4529 12.6442C15.4507 12.4798 15.4885 12.3172 15.5634 12.1695C15.6383 12.0217 15.7481 11.8928 15.8842 11.7932C16.1882 11.5648 16.5655 11.4454 16.9512 11.4556C17.7147 11.4556 18.2064 11.8486 18.3806 12.4814M12.9579 14.3312L14.5482 11.5238H15.3806L12.4156 16.6942H11.5832L12.4662 15.1821L11.1751 11.5238H11.9745L12.9579 14.3312ZM8.82058 12.164C8.63622 12.1612 8.45333 12.1958 8.28386 12.2656C8.11441 12.3355 7.96217 12.4389 7.83718 12.5692C7.70611 12.7041 7.6041 12.8626 7.53694 13.0355C7.4698 13.2084 7.43887 13.3924 7.44593 13.5768C7.44593 13.9327 7.55971 14.2022 7.77887 14.3987C7.99661 14.592 8.28409 14.6962 8.58034 14.6891C8.75667 14.6888 8.93115 14.6546 9.09351 14.5885C9.25588 14.5223 9.40286 14.4257 9.52581 14.3042C9.79696 14.0496 9.93743 13.691 9.93743 13.2473C9.93743 12.9056 9.82365 12.6394 9.60448 12.4477C9.3922 12.2607 9.11335 12.1591 8.82549 12.164M8.79247 11.4657C9.0851 11.4547 9.37372 11.5337 9.61643 11.6913C9.84401 11.8365 9.97957 11.9823 10.0175 12.135L10.0934 11.5312H10.9103L10.4945 15.3131H9.67754L9.7527 14.7053C9.68245 14.8728 9.52581 15.0322 9.27645 15.1781C9.01622 15.3205 8.72102 15.3933 8.4216 15.3888C7.96013 15.3907 7.5147 15.2262 7.17338 14.9275C6.81795 14.6148 6.63602 14.1847 6.63602 13.6403C6.62951 13.3569 6.68209 13.0752 6.79066 12.8116C6.89923 12.5481 7.06162 12.3082 7.2682 12.1059C7.4604 11.9012 7.69575 11.7383 7.95857 11.6279C8.2214 11.5175 8.50568 11.4622 8.79247 11.4657ZM4.17753 14.6871C4.52477 14.6841 4.85971 14.5631 5.12299 14.3454C5.41053 14.1131 5.577 13.7932 5.62243 13.3857C5.66035 13.0001 5.56973 12.6948 5.34144 12.4841C5.23516 12.3782 5.10719 12.2946 4.96562 12.2386C4.82405 12.1825 4.67196 12.1553 4.5189 12.1586C4.18101 12.1598 3.85561 12.2816 3.60575 12.5003C3.34093 12.7259 3.18429 13.046 3.13653 13.4607C3.09157 13.8531 3.17446 14.1583 3.37887 14.3697C3.48155 14.4733 3.60567 14.5551 3.74323 14.6097C3.88078 14.6644 4.02873 14.6908 4.17753 14.6871ZM4.63903 11.4583C4.88404 11.4572 5.12668 11.5046 5.35181 11.5975C5.57696 11.6904 5.77977 11.827 5.94764 11.9986C6.31853 12.3551 6.47728 12.8421 6.40913 13.4607C6.36409 13.9795 6.12014 14.4638 5.72465 14.8195C5.32915 15.1751 4.81032 15.3768 4.26884 15.3854C3.93659 15.3854 3.65633 15.3125 3.43717 15.1598C3.21801 15.0072 3.08595 14.8472 3.05153 14.6729L2.81692 16.6942H2L2.25709 14.3873L2.56756 11.5312H3.38448L3.31424 12.1059C3.38261 11.9533 3.54136 11.8079 3.79049 11.6697C4.04811 11.5276 4.34067 11.4546 4.63761 11.4583" fill="#FC4D0F"/>
<path d="M34.0382 11.9202C33.8573 11.9202 33.6821 11.9805 33.5422 12.0908C33.4023 12.2011 33.3067 12.3546 33.2714 12.5252C33.2361 12.6957 33.2634 12.8728 33.3487 13.0262C33.434 13.1795 33.5718 13.2997 33.7389 13.3663C33.9061 13.4328 34.0921 13.4416 34.2652 13.3911C34.4383 13.3407 34.5878 13.234 34.6882 13.0894C34.7887 12.9448 34.8338 12.7712 34.8162 12.5982C34.7985 12.4251 34.719 12.2633 34.591 12.1403C34.5188 12.0702 34.4326 12.0145 34.3376 11.9767C34.2427 11.9389 34.1409 11.9197 34.0382 11.9202Z" fill="#FC4D0F"/>
<path d="M34.5929 6.47122C34.4665 6.34984 34.3053 6.26724 34.1301 6.23385C33.9547 6.20046 33.7731 6.21778 33.608 6.28362C33.4429 6.34946 33.3019 6.46087 33.2026 6.60376C33.1033 6.74665 33.0504 6.91463 33.0504 7.08646C33.0504 7.25828 33.1033 7.42625 33.2026 7.56914C33.3019 7.71204 33.4429 7.82344 33.608 7.88929C33.7731 7.95512 33.9547 7.97244 34.1301 7.93905C34.3053 7.90566 34.4665 7.82307 34.5929 7.7017C34.6777 7.6214 34.7449 7.52572 34.7907 7.42021C34.8368 7.31471 34.8604 7.20149 34.8604 7.08713C34.8604 6.97277 34.8368 6.85955 34.7907 6.75404C34.7449 6.64854 34.6777 6.55286 34.5929 6.47257" fill="#FC4D0F"/>
<path d="M36.0679 7.8872C35.9413 7.76611 35.7804 7.68379 35.6049 7.65063C35.4298 7.61748 35.2484 7.63497 35.0833 7.7009C34.9184 7.76682 34.7776 7.87821 34.6786 8.02104C34.5793 8.16388 34.5266 8.33175 34.5266 8.50344C34.5266 8.67517 34.5793 8.84301 34.6786 8.98584C34.7776 9.12868 34.9184 9.24009 35.0833 9.30602C35.2484 9.37194 35.4298 9.38941 35.6049 9.35625C35.7804 9.3231 35.9413 9.24078 36.0679 9.11971C36.1527 9.03939 36.2202 8.94368 36.266 8.83811C36.3121 8.73254 36.3357 8.61924 36.3357 8.5048C36.3357 8.39035 36.3121 8.27706 36.266 8.17149C36.2202 8.06592 36.1527 7.97021 36.0679 7.88991" fill="#FC4D0F"/>
<path d="M37.5419 9.30369C37.4155 9.18223 37.2543 9.09955 37.0791 9.06607C36.9037 9.03262 36.7221 9.04986 36.5568 9.11569C36.3917 9.1815 36.2507 9.29289 36.1514 9.43582C36.0521 9.57874 35.9989 9.74675 35.9989 9.91861C35.9989 10.0905 36.0521 10.2585 36.1514 10.4014C36.2507 10.5443 36.3917 10.6557 36.5568 10.7215C36.7221 10.7873 36.9037 10.8046 37.0791 10.7711C37.2543 10.7377 37.4155 10.655 37.5419 10.5335C37.6267 10.4532 37.6941 10.3575 37.74 10.2519C37.7861 10.1463 37.8097 10.0331 37.8097 9.91861C37.8097 9.80416 37.7861 9.69087 37.74 9.5853C37.6941 9.47973 37.6267 9.38402 37.5419 9.30369Z" fill="#FC4D0F"/>
<path d="M33.1228 7.88522C32.9964 7.76367 32.8355 7.68087 32.66 7.64732C32.4846 7.61377 32.3028 7.63099 32.1377 7.69678C31.9724 7.76254 31.8314 7.87396 31.7318 8.01688C31.6326 8.15983 31.5796 8.32788 31.5796 8.49979C31.5796 8.67169 31.6326 8.83975 31.7318 8.98269C31.8314 9.12561 31.9724 9.23703 32.1377 9.30279C32.3028 9.36858 32.4846 9.3858 32.66 9.35225C32.8355 9.31871 32.9964 9.23591 33.1228 9.11436C33.2076 9.03405 33.2748 8.93837 33.3207 8.83287C33.3667 8.72737 33.3904 8.61414 33.3904 8.49979C33.3904 8.38544 33.3667 8.27221 33.3207 8.16671C33.2748 8.06121 33.2076 7.96552 33.1228 7.88522Z" fill="#FC4D0F"/>
<path d="M34.597 9.30102C34.4704 9.17956 34.3094 9.09685 34.134 9.0634C33.9586 9.02992 33.777 9.04719 33.6119 9.11299C33.4466 9.1788 33.3056 9.29022 33.2063 9.43314C33.107 9.57604 33.054 9.74405 33.054 9.91593C33.054 10.0878 33.107 10.2558 33.2063 10.3987C33.3056 10.5416 33.4466 10.653 33.6119 10.7188C33.777 10.7847 33.9586 10.8019 34.134 10.7685C34.3094 10.735 34.4704 10.6523 34.597 10.5308C34.6814 10.4504 34.7485 10.3546 34.7944 10.2491C34.8403 10.1435 34.8636 10.0303 34.8636 9.91593C34.8636 9.80156 34.8403 9.68833 34.7944 9.58278C34.7485 9.47724 34.6814 9.38148 34.597 9.30102Z" fill="#FC4D0F"/>
<path d="M36.0682 10.7184C35.8987 10.5553 35.6685 10.4637 35.4287 10.4637C35.1888 10.4637 34.9588 10.5553 34.7891 10.7184C34.6628 10.8399 34.5768 10.9948 34.542 11.1634C34.5071 11.332 34.5252 11.5067 34.5935 11.6655C34.6621 11.8242 34.7779 11.9599 34.9265 12.0554C35.0753 12.1509 35.25 12.2018 35.4287 12.2018C35.6075 12.2018 35.7822 12.1509 35.9308 12.0554C36.0796 11.9599 36.1954 11.8242 36.2638 11.6655C36.3323 11.5067 36.3502 11.332 36.3154 11.1634C36.2807 10.9948 36.1945 10.8399 36.0682 10.7184Z" fill="#FC4D0F"/>
<path d="M35.3433 5.00001C35.1888 5.00014 35.0377 5.04432 34.9092 5.12697C34.7808 5.20961 34.6806 5.32701 34.6217 5.46433C34.5625 5.60165 34.5472 5.75273 34.5772 5.89847C34.6075 6.04421 34.682 6.17808 34.7912 6.28316C34.8638 6.35287 34.9501 6.40815 35.0448 6.44584C35.1397 6.48353 35.2413 6.5029 35.3438 6.50284C35.4465 6.50277 35.5481 6.48328 35.6428 6.44547C35.7375 6.40767 35.8237 6.35228 35.8961 6.28249C35.9686 6.21269 36.0262 6.12985 36.0654 6.03868C36.1046 5.94752 36.1248 5.84983 36.1248 5.75119C36.1245 5.65254 36.1044 5.55487 36.0649 5.46376C36.0257 5.37265 35.9682 5.28988 35.8955 5.22017C35.8232 5.15006 35.7372 5.09448 35.6425 5.05668C35.5476 5.01888 35.446 4.99961 35.3433 5.00001Z" fill="#FC4D0F"/>
</g>
</g>
<defs>
<clipPath id="clip0_819_5043">
<rect width="36" height="11.6943" fill="white" transform="translate(2 5)"/>
</clipPath>
</defs>
</svg>

<svg width="38" height="24" viewBox="0 0 38 24" role="img" fill="none" xmlns="http://www.w3.org/2000/svg" aria-labelledby="pi-pay_shap"><title id="pi-pay_shap">PayShap</title><rect x="1" y="1" width="36" height="22" rx="2" fill="#fff"/><rect x=".5" y=".5" width="37" height="23" rx="2.5" stroke="#000" stroke-opacity=".07"/><g clip-path="url(#clip0_819_5043)"><mask id="mask0_819_5043" style="mask-type:luminance" maskUnits="userSpaceOnUse" x="2" y="5" width="36" height="12"><path d="M37.806 5H2v11.694h35.806V5z" fill="#fff"/></mask><g mask="url(#mask0_819_5043)" fill="#FC4D0F"><path d="M30.53 13.363c.07-.56-.287-.894-.809-.894-.536 0-.983.371-1.053 1.004-.06.575.265.901.748.901.568 0 1.044-.378 1.113-1.013m-.613-1.905c.245-.002.488.046.713.139.225.092.428.23.595.401.371.357.522.844.454 1.477-.144 1.302-1.225 1.912-2.102 1.912-.281 0-.515-.05-.688-.16-.174-.109-.282-.218-.303-.312l-.211 1.781H27.18l.242-2.189.326-2.971h1.194l-.053.32a.825.825 0 01.166-.146 1.67 1.67 0 01.862-.247m-4.924 2.916c.31 0 .976-.196.976-1.076 0-.516-.378-.822-.855-.822-.575 0-.983.437-.983 1.055 0 .545.35.843.862.843zm1.067-2.48l.06-.363h1.194l-.416 3.782h-1.194l.046-.349c-.099.182-.514.422-1.03.422a1.844 1.844 0 01-1.231-.461c-.356-.306-.537-.735-.537-1.295a2.064 2.064 0 01.15-.827 2.13 2.13 0 01.47-.707c.189-.202.42-.363.678-.472.259-.109.538-.164.82-.161.605.015.968.327.99.429m-4.743-.437c.192-.005.382.031.558.106.175.074.331.185.457.325.264.283.37.705.302 1.272l-.242 2.152h-1.194l.235-2.102c.06-.501-.121-.748-.552-.748a.872.872 0 00-.62.247c-.175.16-.273.298-.303.422l-.264 2.181h-1.195l.568-5.141h1.194l-.227 1.993c.07-.146.21-.299.446-.459.245-.17.541-.256.843-.247m-2.935 1.026l-.99.21c-.091-.218-.235-.327-.422-.327-.211 0-.348.131-.348.277 0 .109.075.188.227.254l.476.167c.198.063.386.148.562.255.31.16.431.386.462.778.006.185-.036.37-.123.534a1.114 1.114 0 01-.377.411 2.063 2.063 0 01-1.187.342c-.37.01-.735-.091-1.04-.292a1.175 1.175 0 01-.34-.345 1.126 1.126 0 01-.167-.447l.96-.24c.098.283.295.422.59.422s.484-.145.484-.313a.24.24 0 00-.055-.153.257.257 0 00-.142-.087l-.446-.16c-.702-.248-1.06-.625-1.06-1.127a1.019 1.019 0 01.111-.475c.075-.147.185-.276.321-.376a1.703 1.703 0 011.067-.337c.764 0 1.255.393 1.43 1.025m-5.423 1.85l1.59-2.807h.833l-2.965 5.17h-.833l.883-1.512-1.29-3.658h.799l.983 2.807zM8.82 12.164a1.356 1.356 0 00-.537.102c-.17.07-.322.173-.447.303a1.394 1.394 0 00-.3.466 1.352 1.352 0 00-.091.542c0 .356.114.625.333.822.218.193.505.297.801.29.177 0 .351-.034.514-.1.162-.067.309-.163.432-.285.271-.254.411-.613.411-1.057 0-.341-.113-.608-.333-.8a1.15 1.15 0 00-.779-.283m-.033-.698c.293-.011.582.068.824.225.228.145.364.291.402.444l.075-.604h.817l-.415 3.782h-.817l.075-.608c-.07.168-.227.327-.477.473-.26.142-.555.215-.854.21a1.885 1.885 0 01-1.249-.46c-.355-.313-.537-.743-.537-1.288a2.05 2.05 0 01.155-.828c.108-.264.27-.504.477-.706.192-.205.428-.368.69-.478.263-.11.548-.166.834-.162zm-4.614 3.221c.347-.003.682-.124.945-.342.288-.232.454-.552.5-.96.037-.385-.053-.69-.282-.9a1.146 1.146 0 00-.823-.325 1.395 1.395 0 00-.912.34c-.265.226-.422.546-.47.96-.044.393.038.698.243.91.103.103.227.185.364.24.138.054.286.08.435.077zm.461-3.229c.245 0 .488.047.713.14.225.092.428.229.596.4.37.357.53.844.461 1.463a2.07 2.07 0 01-.684 1.358 2.231 2.231 0 01-1.456.566c-.332 0-.613-.072-.832-.225-.219-.153-.351-.313-.385-.487l-.235 2.021H2l.257-2.307.31-2.856h.817l-.07.575c.069-.153.227-.298.476-.436.258-.142.55-.215.848-.212M34.038 11.92c-.18 0-.356.06-.496.17a.746.746 0 00-.27.435.726.726 0 00.077.501.772.772 0 00.39.34.812.812 0 00.526.025.779.779 0 00.423-.302.73.73 0 00-.097-.949.775.775 0 00-.553-.22zM34.593 6.471a.938.938 0 00-.985-.188.897.897 0 00-.405.32.845.845 0 000 .966c.099.143.24.254.405.32a.938.938 0 00.985-.187.859.859 0 00.267-.615.859.859 0 00-.267-.615M36.068 7.887a.938.938 0 00-.985-.186.896.896 0 00-.404.32.844.844 0 000 .965c.099.143.24.254.404.32a.938.938 0 00.985-.186.86.86 0 00.268-.615.86.86 0 00-.268-.615M37.542 9.304a.938.938 0 00-.985-.188.897.897 0 00-.406.32.846.846 0 000 .965c.1.143.24.255.406.32a.938.938 0 00.985-.188.86.86 0 00.268-.614.861.861 0 00-.268-.615zM33.123 7.885a.937.937 0 00-.985-.188.899.899 0 00-.406.32.846.846 0 000 .966c.1.143.24.254.406.32a.937.937 0 00.985-.189.86.86 0 00.267-.614.833.833 0 00-.267-.615zM34.597 9.301a.937.937 0 00-.985-.188.897.897 0 00-.406.32.845.845 0 000 .966c.1.143.24.254.406.32a.937.937 0 00.985-.188.835.835 0 00.197-.948.868.868 0 00-.197-.282zM36.068 10.718a.923.923 0 00-.64-.254c-.24 0-.47.091-.639.254a.839.839 0 00-.196.947.88.88 0 00.333.39.93.93 0 001.005 0 .877.877 0 00.333-.39.838.838 0 00-.196-.947zM35.343 5a.804.804 0 00-.434.127.758.758 0 00-.287.337.725.725 0 00.17.82.785.785 0 00.552.219.808.808 0 00.552-.22.75.75 0 00.229-.532.727.727 0 00-.23-.53.777.777 0 00-.552-.221z"/></g></g><defs><clipPath id="clip0_819_5043"><path fill="#fff" transform="translate(2 5)" d="M0 0h36v11.694H0z"/></clipPath></defs></svg>
